gnome-shell/src/data/icons/scalable/actions/screenshooter-symbolic.svg

<?xml version="1.0" encoding="UTF-8" standalone="no"?>
<svg
   height="16px"
   viewBox="0 0 16 16"
   width="16px"
   version="1.1"
   id="svg12"
   sodipodi:docname="screenshooter-symbolic.svg"
   inkscape:version="1.2 (1:1.2.1+202207142221+cd75a1ee6d)"
   xmlns:inkscape="http://www.inkscape.org/namespaces/inkscape"
   xmlns:sodipodi="http://sodipodi.sourceforge.net/DTD/sodipodi-0.dtd"
   xmlns="http://www.w3.org/2000/svg"
   xmlns:svg="http://www.w3.org/2000/svg">
  <defs
     id="defs16" />
  <sodipodi:namedview
     id="namedview14"
     pagecolor="#ffffff"
     bordercolor="#666666"
     borderopacity="1.0"
     inkscape:showpageshadow="2"
     inkscape:pageopacity="0.0"
     inkscape:pagecheckerboard="0"
     inkscape:deskcolor="#d1d1d1"
     showgrid="true"
     inkscape:zoom="29.5"
     inkscape:cx="4.3559322"
     inkscape:cy="8.7118644"
     inkscape:window-width="1920"
     inkscape:window-height="1043"
     inkscape:window-x="0"
     inkscape:window-y="0"
     inkscape:window-maximized="1"
     inkscape:current-layer="svg12">
    <inkscape:grid
       type="xygrid"
       id="grid463" />
  </sodipodi:namedview>
  <path
     style="fill:#808080"
     d="m 8,6 v 0.965 c -1.1080001,0.006 -2.0000001,0.902 -2.0000001,2.012 v 4.011 c 0,1.114 0.898,2.012 2.0120001,2.012 h 5.976 a 2.009,2.009 0 0 0 2.012,-2.012 v -4.011 a 2.009,2.009 0 0 0 -2.012,-2.012 h -3.988 v -0.965 z m 0,2 h 6 c 0.554,0 1,0.446 1,1 v 4 c 0,0.554 -0.446,1 -1,1 h -6 c -0.5540001,0 -1.0000001,-0.446 -1.0000001,-1 v -4 c 0,-0.554 0.446,-1 1.0000001,-1 z"
     id="path145" />
  <path
     style="fill:#808080;fill-opacity:1;stroke-width:26.4567"
     d="m 11,9 a 2,2 0 0 0 -2,2 2,2 0 0 0 2,2 2,2 0 0 0 2,-2 2,2 0 0 0 -2,-2 z m 0,1 a 1,1 0 0 1 1,1 1,1 0 0 1 -1,1 1,1 0 0 1 -1,-1 1,1 0 0 1 1,-1 z"
     id="path147" />
  <path
     id="path469"
     style="fill:#808080"
     d="M 12 0.96484375 L 12 2 L 13 2 C 13.553998 2 14 2.4460012 14 3 L 14 4 L 15 4 L 15 2.9765625 A 2.009 2.009 0 0 0 12.988281 0.96484375 L 12 0.96484375 z " />
  <path
     id="path581"
     style="fill:#808080"
     d="m 4,0.96484375 v 1.03515625 h -1 c -0.553998,0 -1,0.4460012 -1,1 v 1 h -1 v -1.0234375 a 2.009,2.009 0 0 1 2.011719,-2.01171875 z" />
  <path
     id="path583"
     style="fill:#808080"
     d="m 4,12.035157 v -1.035157 h -1 c -0.553998,0 -1,-0.446001 -1,-1.0000003 v -0.9999997 h -1 v 1.023438 a 2.009,2.009 0 0 0 2.011719,2.011719 z" />
</svg>

<svg height="16" width="16" xmlns="http://www.w3.org/2000/svg"><path style="fill:gray" d="M8 6v.965c-1.108.006-2 .902-2 2.012v4.011C6 14.102 6.898 15 8.012 15h5.976A2.009 2.009 0 0 0 16 12.988V8.977a2.009 2.009 0 0 0-2.012-2.012H10V6zm0 2h6c.554 0 1 .446 1 1v4c0 .554-.446 1-1 1H8c-.554 0-1-.446-1-1V9c0-.554.446-1 1-1z"/><path style="fill:gray;fill-opacity:1;stroke-width:26.4567" d="M11 9a2 2 0 0 0-2 2 2 2 0 0 0 2 2 2 2 0 0 0 2-2 2 2 0 0 0-2-2zm0 1a1 1 0 0 1 1 1 1 1 0 0 1-1 1 1 1 0 0 1-1-1 1 1 0 0 1 1-1z"/><path style="fill:gray" d="M12 .965V2h1c.554 0 1 .446 1 1v1h1V2.977A2.009 2.009 0 0 0 12.988.965H12zM4 .965V2H3c-.554 0-1 .446-1 1v1H1V2.977A2.009 2.009 0 0 1 3.012.965zM4 12.035V11H3c-.554 0-1-.446-1-1V9H1v1.023a2.009 2.009 0 0 0 2.012 2.012z"/></svg>
